X:184
T: Die Mordeltern
N: Q0085Z
O: Suedosteuropa, Rumaenien, Siebenbuergen
R: Ballade, Habgier, Mord, Reue, Selbstmord
M: 3/4
L: 1/8
K: G
G | BAG2G2 | FED2z
G | FGA2A2 | GAB2z
D | GBd2d2 | e2d2z
c | Bcd2d2 | c2B2z

